en/_assets/wiki/svg/current.svg

<svg xmlns="http://www.w3.org/2000/svg" xmlns:xlink="http://www.w3.org/1999/xlink" width="14" height="12" class="yc-icon" fill="currentColor" stroke="none" aria-hidden="true"><svg viewBox="0 0 14 12" xmlns="http://www.w3.org/2000/svg"><path d="M12.2812 0.4375H1.71875C1.0332 0.4375 0.5 0.996094 0.5 1.65625V3.6875C0.5 3.91602 0.677734 4.09375 0.90625 4.09375H1.3125V11C1.3125 11.457 1.66797 11.8125 2.125 11.8125H11.875C12.3066 11.8125 12.6875 11.457 12.6875 11V4.09375H13.0938C13.2969 4.09375 13.5 3.91602 13.5 3.6875V1.65625C13.5 0.996094 12.9414 0.4375 12.2812 0.4375ZM11.4688 10.5938H2.53125V4.09375H11.4688V10.5938ZM12.2812 2.875H1.71875V1.65625H12.2812V2.875ZM5.67969 6.53125H8.32031C8.47266 6.53125 8.625 6.4043 8.625 6.22656V5.61719C8.625 5.46484 8.47266 5.3125 8.32031 5.3125H5.67969C5.50195 5.3125 5.375 5.46484 5.375 5.61719V6.22656C5.375 6.4043 5.50195 6.53125 5.67969 6.53125Z"></path></svg></svg>

<svg xmlns="http://www.w3.org/2000/svg" width="14" height="12" fill="currentColor" aria-hidden="true" class="yc-icon"><svg xmlns="http://www.w3.org/2000/svg" viewBox="0 0 14 12"><path d="M12.281.438H1.72C1.033.438.5.996.5 1.655v2.032c0 .228.178.406.406.406h.406V11c0 .457.356.813.813.813h9.75a.818.818 0 0 0 .813-.813V4.094h.406a.418.418 0 0 0 .406-.407v-2.03c0-.66-.559-1.22-1.219-1.22Zm-.812 10.156H2.53v-6.5h8.938v6.5Zm.812-7.719H1.72V1.656H12.28v1.219ZM5.68 6.531h2.64a.309.309 0 0 0 .305-.304v-.61a.328.328 0 0 0-.305-.304H5.68a.309.309 0 0 0-.305.304v.61c0 .177.127.304.305.304Z"/></svg></svg>
